packages/web/app/assets/images/minus_circle.svg

<svg fill="none" height="25" viewBox="0 0 25 25" width="25" xmlns="http://www.w3.org/2000/svg"><g fill="#326699"><path d="m21.4142 3.75c-2.3447-2.42187-5.549-3.75-8.9096-3.75-3.28244 0-6.4086 1.25-8.75321 3.59375-2.34462 2.34375-3.6732361 5.46875-3.75139 8.82815 0 3.3593 1.25046 6.4843 3.59508 8.8281 2.34462 2.4219 5.54892 3.75 8.90952 3.75 3.2825 0 6.4086-1.25 8.7533-3.5938 4.9237-4.8437 5.0018-12.81245.1563-17.6562zm-1.3287 16.4844c-2.032 2.0312-4.7673 3.125-7.5809 3.125-2.89167 0-5.62706-1.1719-7.73721-3.2032-2.032-2.0312-3.12616-4.7656-3.12616-7.6562 0-2.89062 1.17231-5.625 3.20431-7.65625s4.76739-3.125 7.58096-3.125c2.8917 0 5.627 1.17188 7.7372 3.20313 4.2203 4.21874 4.2203 11.09372-.0782 15.31252z"/><path d="m13.3644 11.6406h-7.50275c-.46893 0-.8597.3906-.8597.8594s.39077.8594.8597.8594h7.65905zm0 1.7188h5.7834c.4689 0 .8597-.3906.8597-.8594s-.3908-.8594-.8597-.8594h-5.7834"/></g></svg>

<svg width="25" height="25" viewBox="0 0 25 25" fill="none" xmlns="http://www.w3.org/2000/svg">
<path d="M21.4142 3.75C19.0695 1.32813 15.8652 0 12.5046 0C9.22216 0 6.096 1.25 3.75139 3.59375C1.40677 5.9375 0.0781539 9.0625 0 12.4219C0 15.7812 1.25046 18.9062 3.59508 21.25C5.9397 23.6719 9.144 25 12.5046 25C15.7871 25 18.9132 23.75 21.2579 21.4062C26.1816 16.5625 26.2597 8.59375 21.4142 3.75ZM20.0855 20.2344C18.0535 22.2656 15.3182 23.3594 12.5046 23.3594C9.61293 23.3594 6.87754 22.1875 4.76739 20.1562C2.73539 18.125 1.64123 15.3906 1.64123 12.5C1.64123 9.60938 2.81354 6.875 4.84554 4.84375C6.87754 2.8125 9.61293 1.71875 12.4265 1.71875C15.3182 1.71875 18.0535 2.89063 20.1637 4.92188C24.384 9.14062 24.384 16.0156 20.0855 20.2344Z" fill="#326699"/>
<path d="M13.3644 11.6406H5.86165C5.39272 11.6406 5.00195 12.0312 5.00195 12.5C5.00195 12.9688 5.39272 13.3594 5.86165 13.3594H13.5207L13.3644 11.6406ZM13.3644 13.3594H19.1478C19.6167 13.3594 20.0075 12.9688 20.0075 12.5C20.0075 12.0312 19.6167 11.6406 19.1478 11.6406H13.3644" fill="#326699"/>
</svg>
